X: 4
T:no. 4, Paper Bird, 3:02
M:4/4
L:1/8
C:Diarmaid Moynihan
S:www.kerrywhistle.com (video clips)
R:Reel
Z:John Norvell
K:BMin
|: Bcde f2 ef | Bcde afgf | Bcde fegf |1 efcd ~B3 F :|2 efcd B3 d |!
|: dBde f2 e/2f/2a | dBfg f2 ec | dBde fe ab |1 fede ~f3 d :|2 fede ~f3a
 |!
|: b2 ab fefa | fabf edef |1 b2 ab fede | fgfe ~f3 a :|2 b2 ab fede | fg
fd cdcA :|!
